assets/images/invoice/uideck-logo.svg

<svg fill="none" height="121" viewBox="0 0 121 121" width="121" xmlns="http://www.w3.org/2000/svg" xmlns:xlink="http://www.w3.org/1999/xlink"><linearGradient id="a" gradientUnits="userSpaceOnUse" x1="66.9837" x2="30.4616" y1="85.9951" y2="23.6887"><stop offset="0" stop-color="#2535c5"/><stop offset=".169697" stop-color="#36409b"/><stop offset=".575758" stop-color="#475bc6"/><stop offset="1" stop-color="#7075e4"/></linearGradient><linearGradient id="b" gradientUnits="userSpaceOnUse" x1="93.2436" x2="93.2436" y1="29.7656" y2="91.3963"><stop offset="0" stop-color="#375ad8"/><stop offset=".472727" stop-color="#3c56dd"/><stop offset="1" stop-color="#2a1a8f"/></linearGradient><linearGradient id="c" gradientUnits="userSpaceOnUse" x1="57.1468" x2="57.1468" y1="29.7656" y2="92.0119"><stop offset="0" stop-color="#233593"/><stop offset=".472727" stop-color="#4957d7"/><stop offset=".890909" stop-color="#5465ff"/><stop offset="1" stop-color="#6a67ff"/></linearGradient><linearGradient id="d" gradientUnits="userSpaceOnUse" x1="25.2728" x2="33.8998" y1="40.3118" y2="29.5143"><stop offset="0" stop-color="#3a4a9c"/><stop offset=".327273" stop-color="#475bc6"/><stop offset="1" stop-color="#7090e4"/></linearGradient><linearGradient id="e" gradientUnits="userSpaceOnUse" x1="93.6755" x2="85.3353" y1="81.6326" y2="91.5464"><stop offset="0" stop-color="#2d3792"/><stop offset=".193939" stop-color="#3f2bb8"/><stop offset="1" stop-color="#3c38ff"/></linearGradient><path d="m.094372.88858h120v120h-120z" fill="#fff"/><path d="m61.1975 46.5119v19.087c0 8.8917-5.3768 14.2622-13.5276 14.2622-8.1517 0-13.8742-5.3705-13.8742-14.2622v-35.8333h-13.7013v35.8333c0 16.2876 10.7519 26.4126 27.5755 26.4126 16.7359 0 27.2291-10.125 27.2291-26.4126v-35.8333h-.2407c-7.2256 2.3555-12.616 8.8561-13.4608 16.7463z" fill="url(#a)"/><path d="m86.6281 29.7656h-.2354v61.6305h13.7013v-44.8718c-.129-6.8489-6.2361-14.4017-13.4659-16.7587z" fill="url(#b)"/><path d="m61.1975 46.5119v19.087c0 .0114-.0008.0228-.0008.0356.0032.1897.0134.3781.0134.5693 0 12.8546-9.5357 23.4422-21.8149 24.8848 2.5555.6044 5.3196.9229 8.2746.9229 16.736 0 27.2292-10.125 27.2292-26.4126v-35.8333h-.2407c-7.2256 2.3555-12.616 8.8561-13.4608 16.7463z" fill="url(#c)"/><path d="m33.7957 46.5428v-16.7772h-13.7013v.0027c7.2845 2.3597 12.7432 8.8589 13.7013 16.7745z" fill="url(#d)"/><path d="m86.3927 73.1325v18.2635h13.5344c-7.5474-2.7041-13.0516-9.7985-13.5344-18.2635z" fill="url(#e)"/></svg>

<svg width="121" height="121" viewBox="0 0 121 121" fill="none" xmlns="http://www.w3.org/2000/svg">
<rect x="0.0943718" y="0.88858" width="120" height="120" fill="white"/>
<path d="M61.1975 46.5119V65.5989C61.1975 74.4906 55.8207 79.8611 47.6699 79.8611C39.5182 79.8611 33.7957 74.4906 33.7957 65.5989V29.7656H20.0944V65.5989C20.0944 81.8865 30.8463 92.0115 47.6699 92.0115C64.4058 92.0115 74.899 81.8865 74.899 65.5989V29.7656H74.6583C67.4327 32.1211 62.0423 38.6217 61.1975 46.5119Z" fill="url(#paint0_linear_6_12)"/>
<path d="M86.6281 29.7656H86.3927V91.3961H100.094V46.5243C99.965 39.6754 93.8579 32.1226 86.6281 29.7656Z" fill="url(#paint1_linear_6_12)"/>
<path d="M61.1975 46.5119V65.5989C61.1975 65.6103 61.1967 65.6217 61.1967 65.6345C61.1999 65.8242 61.2101 66.0126 61.2101 66.2038C61.2101 79.0584 51.6744 89.646 39.3952 91.0886C41.9507 91.693 44.7148 92.0115 47.6698 92.0115C64.4058 92.0115 74.899 81.8865 74.899 65.5989V29.7656H74.6583C67.4327 32.1211 62.0423 38.6217 61.1975 46.5119Z" fill="url(#paint2_linear_6_12)"/>
<path d="M33.7957 46.5428V29.7656H20.0944V29.7683C27.3789 32.128 32.8376 38.6272 33.7957 46.5428Z" fill="url(#paint3_linear_6_12)"/>
<path d="M86.3927 73.1325V91.396H99.9271C92.3797 88.6919 86.8755 81.5975 86.3927 73.1325Z" fill="url(#paint4_linear_6_12)"/>
<defs>
<linearGradient id="paint0_linear_6_12" x1="66.9837" y1="85.9951" x2="30.4616" y2="23.6887" gradientUnits="userSpaceOnUse">
<stop stop-color="#2535C5"/>
<stop offset="0.169697" stop-color="#36409B"/>
<stop offset="0.575758" stop-color="#475BC6"/>
<stop offset="1" stop-color="#7075E4"/>
</linearGradient>
<linearGradient id="paint1_linear_6_12" x1="93.2436" y1="29.7656" x2="93.2436" y2="91.3963" gradientUnits="userSpaceOnUse">
<stop stop-color="#375AD8"/>
<stop offset="0.472727" stop-color="#3C56DD"/>
<stop offset="1" stop-color="#2A1A8F"/>
</linearGradient>
<linearGradient id="paint2_linear_6_12" x1="57.1468" y1="29.7656" x2="57.1468" y2="92.0119" gradientUnits="userSpaceOnUse">
<stop stop-color="#233593"/>
<stop offset="0.472727" stop-color="#4957D7"/>
<stop offset="0.890909" stop-color="#5465FF"/>
<stop offset="1" stop-color="#6A67FF"/>
</linearGradient>
<linearGradient id="paint3_linear_6_12" x1="25.2728" y1="40.3118" x2="33.8998" y2="29.5143" gradientUnits="userSpaceOnUse">
<stop stop-color="#3A4A9C"/>
<stop offset="0.327273" stop-color="#475BC6"/>
<stop offset="1" stop-color="#7090E4"/>
</linearGradient>
<linearGradient id="paint4_linear_6_12" x1="93.6755" y1="81.6326" x2="85.3353" y2="91.5464" gradientUnits="userSpaceOnUse">
<stop stop-color="#2D3792"/>
<stop offset="0.193939" stop-color="#3F2BB8"/>
<stop offset="1" stop-color="#3C38FF"/>
</linearGradient>
</defs>
</svg>
